deployments/warp_routes/MITO/logo.svg

<svg xmlns="http://www.w3.org/2000/svg" width="513" height="513" fill="none" viewBox="0 0 513 513"><circle cx="256.5" cy="256.688" r="256" fill="#5F5DF8"/><path fill="url(#a)" d="M188.487 86.613c29.553-6.533 58.912-8.657 88.78-7.711 41.774-.156 85.332 11.92 116.307 41.142 21.67 21.452 37.661 49.991 40.327 80.647-.438 17.904-.328 35.25.529 52.99.174 14.377.193 29.758-2.035 44.339-1.538 11.788-4.975 24.376-8.037 35.862-16.762 72.394-76.05 94.142-143.582 98.692-14.532.673-29.266.582-43.774 1.279-11.83.421-23.909 1.441-35.9.34-30.512-4.253-59.417-18.838-80.922-40.96l-.004.003c-16.855-17.728-27.142-41.075-33.632-64.36-4.443-17.223-5.314-34.84-6.88-52.383-.96-14.488-1.62-29.558-.777-44.109.677-15.274 3.791-29.867 7.052-45.184 6.343-31.389 22.252-61.456 49.278-79.77 15.898-10.906 34.602-16.912 53.27-20.817m211.028 84.662c-4.599 11.286-11.804 21.148-18.874 31.098-14.433 21.904-21.823 47.012-33.882 70.312-7.033 16.245-14.472 33.35-27.796 45.435-12.8 12.713-31.151 18.681-47.658 25.086-16.059 7.024-31.364 14.612-46.069 23.753-15.158 8.689-28.036 20.631-43.884 28.7a95 95 0 0 1-7.803 3.395 207 207 0 0 0 32.366 16.379c10.058 4.021 20.506 9.002 31.477 10.372 22.182 3.046 44.488-4.491 63.602-15.293 31.274-19.063 51.686-50.363 79.445-73.623 7.782-7.026 15.629-14.625 21.95-23.086 15.334-22.401 26.386-49.605 25.185-77.191-.153-11.283-5.164-21.907-10.09-31.714-5.436-11.558-11.3-22.884-17.969-33.623m-25.156-32.538c-17.135-15.482-64.852.489-81.014 13.906a150.3 150.3 0 0 0-34.004 36.912c-8.932 14.007-16.96 28.713-28.711 40.305-11.09 12.344-29.303 17.235-42.647 26.808-6.75 5.054-13.244 10.452-19.357 16.231-18.341 16.897-28.93 41.202-33.635 64.884-1.991 12.187-3.127 26.668 5.221 35.46h.004c9.838 6.483 22.587 4.979 34.787 3.084 24.462-2.774 48.902-12.509 66.138-30.779 12.481-11.678 21.23-26.929 28.948-42.039 8.154-14.769 18.997-26.135 32.9-35.443 14.229-8.72 28.631-17.968 40.692-29.672 12.758-10.787 24.614-23.359 30.048-39.442 2.748-7.861 3.793-16.347 4.653-24.297 1.23-12.589 3.252-25.445-3.643-35.514l-.138-.142zm-27.83-24.553c-34.357-24.494-77.704-36.57-118.422-18.973-30.697 10.895-49.511 38.592-71.785 60.44-13.712 15.088-30.165 27.873-42.914 44.008-6.694 8.347-11.787 18.284-15.926 28.128-11.012 25.323-14.01 54.847-3.28 80.741 3.999 10.204 8.823 19.978 14.61 29.178a183 183 0 0 0 5.689 7.542c7.378-20.811 22.869-41.499 31.678-57.159 8.95-14.779 15.829-30.694 23.485-46.331 7.129-15.933 11.56-35.693 24.956-47.887 12.716-12.718 29.403-20.67 46.042-27.246 16.411-6.783 32.138-14.128 47.84-21.821 19.39-9.062 37.594-23.831 58.027-30.62"/><mask id="b" width="323" height="322" x="96" y="96" maskUnits="userSpaceOnUse" style="mask-type:alpha"><circle cx="257.806" cy="257.087" r="160.904" fill="#D9D9D9"/></mask><g mask="url(#b)"><path fill="url(#c)" d="M119.85 393.194c-27.64-32.186 10.058-76.861 25.965-105.141 8.95-14.779 15.83-30.694 23.486-46.331 7.129-15.933 11.559-35.694 24.956-47.888 12.716-12.717 29.403-20.669 46.042-27.246 16.41-6.783 32.138-14.128 47.84-21.82 28.401-13.274 54.256-38.798 88.303-33.541 19.016 3.35 30.395 23.794 27.307 41.866-1.97 19.614-12.873 34.329-23.471 49.244-14.434 21.904-21.824 47.011-33.883 70.312-7.033 16.244-14.472 33.35-27.795 45.434-12.801 12.714-31.151 18.681-47.659 25.086-16.059 7.024-31.363 14.613-46.069 23.754-15.159 8.689-28.036 20.631-43.884 28.7-18.098 8.861-44.77 14.772-61.132-2.428zm20.002-19.988c9.838 6.484 22.587 4.98 34.787 3.085 24.462-2.774 48.902-12.509 66.138-30.779 12.481-11.678 21.23-26.929 28.949-42.039 8.153-14.77 18.997-26.136 32.899-35.444 14.23-8.72 28.632-17.967 40.693-29.671 12.758-10.788 24.613-23.359 30.047-39.442 2.748-7.861 3.793-16.347 4.654-24.297 1.235-12.65 3.273-25.57-3.742-35.661-16.889-15.917-65.045.157-81.296 13.649a150.3 150.3 0 0 0-34.003 36.912c-8.932 14.007-16.96 28.713-28.711 40.305-11.091 12.344-29.304 17.234-42.648 26.807-6.75 5.054-13.243 10.453-19.356 16.232-18.342 16.897-28.931 41.201-33.635 64.884-1.992 12.187-3.127 26.668 5.221 35.459z"/></g><defs><radialGradient id="a" cx="0" cy="0" r="1" gradientTransform="rotate(135 75.792 182.873)scale(217.382 202.213)" gradientUnits="userSpaceOnUse"><stop stop-color="#9FFFF4"/><stop offset=".309" stop-color="#9FA8FE"/><stop offset=".69" stop-color="#9CFFF3"/><stop offset=".784" stop-color="#D0D5FF"/><stop offset=".871" stop-color="#fff"/><stop offset=".908" stop-color="#fff"/><stop offset="1" stop-color="#E8EBFF"/></radialGradient><radialGradient id="c" cx="0" cy="0" r="1" gradientTransform="rotate(136.045 76.63 180.57)scale(281.614 112.74)" gradientUnits="userSpaceOnUse"><stop offset=".108" stop-color="#ACFFF5"/><stop offset=".576" stop-color="#fff"/><stop offset=".778" stop-color="#B9C4FF"/></radialGradient></defs></svg>

<svg width="513" height="513" viewBox="0 0 513 513" fill="none" xmlns="http://www.w3.org/2000/svg">
<circle cx="256.5" cy="256.688" r="256" fill="#5F5DF8"/>
<path d="M188.487 86.6129C218.04 80.0804 247.399 77.9562 277.267 78.902C319.041 78.7465 362.599 90.822 393.574 120.044C415.244 141.496 431.235 170.035 433.901 200.691C433.463 218.595 433.573 235.941 434.43 253.681C434.604 268.058 434.623 283.439 432.395 298.02C430.857 309.808 427.42 322.396 424.358 333.882C407.596 406.276 348.308 428.024 280.776 432.574C266.244 433.247 251.51 433.156 237.002 433.853C225.172 434.274 213.093 435.294 201.102 434.193C170.59 429.94 141.685 415.355 120.18 393.233L120.176 393.236C103.321 375.508 93.034 352.161 86.5442 328.876C82.1011 311.653 81.2304 294.036 79.6633 276.493C78.7041 262.005 78.0449 246.935 78.887 232.384C79.5643 217.11 82.6783 202.517 85.9387 187.2C92.2821 155.811 108.191 125.744 135.217 107.43C151.115 96.524 169.819 90.5185 188.487 86.6129ZM399.515 171.275C394.916 182.561 387.711 192.423 380.641 202.373C366.208 224.277 358.818 249.385 346.759 272.685C339.726 288.93 332.287 306.035 318.963 318.12C306.163 330.833 287.812 336.801 271.305 343.206C255.246 350.23 239.941 357.818 225.236 366.959C210.078 375.648 197.2 387.59 181.352 395.659C178.894 396.862 176.276 398.01 173.549 399.054C183.787 405.416 194.618 410.912 205.915 415.433C215.973 419.454 226.421 424.435 237.392 425.805C259.574 428.851 281.88 421.314 300.994 410.512C332.268 391.449 352.68 360.149 380.439 336.889C388.221 329.863 396.068 322.264 402.389 313.803C417.723 291.402 428.775 264.198 427.574 236.612C427.421 225.329 422.41 214.705 417.484 204.898C412.048 193.34 406.184 182.014 399.515 171.275ZM374.359 138.737C357.224 123.255 309.507 139.226 293.345 152.643C280.071 162.908 268.566 175.384 259.341 189.555C250.409 203.562 242.381 218.268 230.63 229.86C219.54 242.204 201.327 247.095 187.983 256.668C181.233 261.722 174.739 267.12 168.626 272.899C150.285 289.796 139.696 314.101 134.991 337.783C133 349.97 131.864 364.451 140.212 373.243H140.216C150.054 379.726 162.803 378.222 175.003 376.327C199.465 373.553 223.905 363.818 241.141 345.548C253.622 333.87 262.371 318.619 270.089 303.509C278.243 288.74 289.086 277.374 302.989 268.066C317.218 259.346 331.62 250.098 343.681 238.394C356.439 227.607 368.295 215.035 373.729 198.952C376.477 191.091 377.522 182.605 378.382 174.655C379.612 162.066 381.634 149.21 374.739 139.141C374.692 139.094 374.647 139.046 374.601 138.999C374.52 138.911 374.439 138.824 374.359 138.737ZM346.529 114.184C312.172 89.6904 268.825 77.6149 228.107 95.2106C197.41 106.106 178.596 133.803 156.322 155.651C142.61 170.739 126.157 183.524 113.408 199.659C106.714 208.006 101.621 217.943 97.4817 227.787C86.47 253.11 83.4727 282.634 94.2024 308.528C98.2006 318.732 103.025 328.506 108.812 337.706C110.61 340.229 112.516 342.747 114.501 345.248C121.879 324.437 137.37 303.749 146.179 288.089C155.129 273.31 162.008 257.395 169.664 241.758C176.793 225.825 181.224 206.065 194.62 193.871C207.336 181.153 224.023 173.201 240.662 166.625C257.073 159.842 272.8 152.497 288.502 144.804C307.892 135.742 326.096 120.973 346.529 114.184Z" fill="url(#paint0_radial_850_8)"/>
<mask id="mask0_850_8" style="mask-type:alpha" maskUnits="userSpaceOnUse" x="96" y="96" width="323" height="322">
<ellipse cx="257.806" cy="257.087" rx="160.904" ry="160.904" fill="#D9D9D9"/>
</mask>
<g mask="url(#mask0_850_8)">
<path d="M119.85 393.194C92.2103 361.008 129.908 316.333 145.815 288.053C154.765 273.274 161.645 257.359 169.301 241.722C176.43 225.789 180.86 206.028 194.257 193.834C206.973 181.117 223.66 173.165 240.299 166.588C256.709 159.805 272.437 152.46 288.139 144.768C316.54 131.494 342.395 105.97 376.442 111.227C395.458 114.577 406.837 135.021 403.749 153.093C401.779 172.707 390.876 187.422 380.278 202.337C365.844 224.241 358.454 249.348 346.395 272.649C339.362 288.893 331.923 305.999 318.6 318.083C305.799 330.797 287.449 336.764 270.941 343.169C254.882 350.193 239.578 357.782 224.872 366.923C209.713 375.612 196.836 387.554 180.988 395.623C162.89 404.484 136.218 410.395 119.856 393.195L119.85 393.194ZM139.852 373.206C149.69 379.69 162.439 378.186 174.639 376.291C199.101 373.517 223.541 363.782 240.777 345.512C253.258 333.834 262.007 318.583 269.726 303.473C277.879 288.703 288.723 277.337 302.625 268.029C316.855 259.309 331.257 250.062 343.318 238.358C356.076 227.57 367.931 214.999 373.365 198.916C376.113 191.055 377.158 182.569 378.019 174.619C379.254 161.969 381.292 149.049 374.277 138.958C357.388 123.041 309.232 139.115 292.981 152.607C279.707 162.871 268.202 175.347 258.978 189.519C250.046 203.526 242.018 218.232 230.267 229.824C219.176 242.168 200.963 247.058 187.619 256.631C180.869 261.685 174.376 267.084 168.263 272.863C149.921 289.76 139.332 314.064 134.628 337.747C132.636 349.934 131.501 364.415 139.849 373.206L139.852 373.206Z" fill="url(#paint1_radial_850_8)"/>
</g>
<defs>
<radialGradient id="paint0_radial_850_8" cx="0" cy="0" r="1" gradientUnits="userSpaceOnUse" gradientTransform="translate(258.696 258.59) rotate(135) scale(217.382 202.213)">
<stop stop-color="#9FFFF4"/>
<stop offset="0.308778" stop-color="#9FA8FE"/>
<stop offset="0.690052" stop-color="#9CFFF3"/>
<stop offset="0.783962" stop-color="#D0D5FF"/>
<stop offset="0.871284" stop-color="white"/>
<stop offset="0.907743" stop-color="white"/>
<stop offset="1" stop-color="#E8EBFF"/>
</radialGradient>
<radialGradient id="paint1_radial_850_8" cx="0" cy="0" r="1" gradientUnits="userSpaceOnUse" gradientTransform="translate(257.127 257.371) rotate(136.045) scale(281.614 112.74)">
<stop offset="0.107714" stop-color="#ACFFF5"/>
<stop offset="0.576122" stop-color="white"/>
<stop offset="0.777533" stop-color="#B9C4FF"/>
</radialGradient>
</defs>
</svg>
